X: 295
T: Tui dengdeng
%%abc-version 2.0
%%abcx-abcm2ps-target-version 5.9.1 (29 Sep 2008)
%%abc-creator hum2abc beta
%%abcx-conversion-date 2013/10/02 07:52:29
%%abc-edited-by Helmut Schaffrath
%%humdrum-veritas 3538409600
%%humdrum-veritas-data 2848057587
%%continueall 1
%%barnumbers 0
L: 1/8
M: 2/4
K: Bb
B c f d/ c/ [I:setbarnb 1]| 
c dF2 | 
B c/ c/ f c/ d/ | 
c DF2 | 
B c f d/ c/ | 
f c d c | 
f c f d/ c/ | 
B2B2 | 
d c/ c/ B c | 
B c c/ B/ G/ G/ | 
F2F2 | 
F GF2 |]  



